X:1
T:How Blest Are They Whose Trespass
T:Text: Psalm 32; vers. Psalter, 1912, alt. Tune: Chrétien Urhan, 1834; arr. Edward F. Rimbault, 1867
T:76 76 D RUTHERFORD www.hymnary.org/text/how_blest_is_he_whose_trespass
T:How Blest Are They Whose Trespass
T:This hymn is in the public domain. You may freely use this score for personal and congregational worship. If you reproduce the score, please credit Hymnary.org as the source. 
T:This hymn is in the public domain. You may freely use this score for personal and congregational worship. If you reproduce the score, please credit Hymnary.org as the source. 
T:This hymn is in the public domain. You may freely use this score for personal and congregational worship. If you reproduce the score, please credit Hymnary.org as the source. 
Z:This hymn is in the public domain. You may freely use this score for personal and congregational worship. If you reproduce the score, please credit Hymnary.org as the source.
%%score ( 1 2 ) ( 3 4 )
L:1/8
M:4/4
K:F
V:1 treble nm="SOPRANO ALTO" snm="S. A."
V:2 treble 
V:3 bass nm="TENOR BASS" snm="T. B."
V:4 bass 
V:1
"^1""^2""^3""^4""^5" A2 | A2 A2 G3 G | F4 F2 F2 | B3 B A2 B2 | G6 | G2 | c3 c B2 B2 | A4 G2 G2 | %8
w: How|blest are they whose|tres- pass has|free- ly been for-|given,|whose|sins are whol- ly|cov- ered be-|
w: While|I kept guil- ty|si- lence, my|strength was spent with|grief:|your|hand was heav- y|on me; my|
w: So|let the god- ly|seek you in|times when you are|near;|no|whelm- ing floods shall|reach them or|
w: "I|gra- cious- ly will|teach you the|way that you should|go,|and,|with my eye up-|on you, help|
w: The|sor- rows of the|wick- ed in-|crease from year to|year,|but|those who trust the|LORD God know|
 F2 F2 EF GE | F6 | F2 | F3 F F2 G2 | A4 A2 F2 | F3 F F2 G2 | A6 |1 AB | c2 c2 d3 c | c4 B2 B2 | %18
w: fore the sight * of *|heaven.|Blest|they to whom the|LORD God does|not im- pute their|sin,|who *|have a guile- less|spir- it, whose|
w: soul found no * re- *|lief.|But|when I owned my|tres- pass and|did not hide my|sin,|then *|you for- gave my|guilt, LORD re-|
w: cause their hearts _ to *|fear.|O|LORD you are my|ref- uge, you|are my hid- ing|place,|and *|you sur- round me|al- ways with|
w: you my coun- * sel *|know.|Then|do not be un-|rul- y or|slow to un- der-|stand;|be *|not per- verse, but|will- ing to|
w: love in- stead _ of *|fear.|Then|in the LORD be|joy- ful, in|song lift up your|voice;|be *|glad in God, you|right- eous: re-|
 A2 A2 G3 F | F6 x2 |] %20
w: heart is true with-|in|
w: stored my life with-|in.|
w: songs of sav- ing|grace.|
w: heed my wise com-|mand|
w: joice, O saints, re-|joice.|
V:2
 F2 | F2 F2 E3 E | D4 D2 F2 | F3 F F2 F2 | E6 | E2 | F3 F E2 E2 | F4 D2 D2 | C2 C2 C2 C2 | C6 | %10
 C2 | D3 D F2 E2 | F4 F2 C2 | D3 D F2 E2 | F6 |1 FE | F2 F2 F3 F | F4 E2 E2 | F2 F2 E3 C | C6 x2 |] %20
V:3
 C2 | C2 C2 B,3 B, | A,4 A,2 A,2 | D3 D C2 D2 | C6 | C2 | C3 C C2 C2 | C4 B,2 B,2 | %8
 A,2 A,2 G,A, B,G, | A,6 | A,2 | D3 D _D2 D2 | C4 C2 A,2 | D3 D _D2 D2 | C6 |1 C2 | C2 C2 B,3 C | %17
 C4 C2 C2 | C2 C2 B,3 A, | A,6 x2 |] %20
V:4
 F,2 | F,2 F,2 C,3 C, | D,4 D,2 D,2 | B,,3 B,, F,2 B,,2 | C,6 | B,2 | A,3 A, G,2 G,2 | %7
 F,4 B,,2 B,,2 | C,2 C,2 C,2 C,2 | F,6 | F,2 | B,3 B, B,2 B,2 | F,4 F,2 F,2 | B,3 B, B,2 B,2 | %14
 F,6 |1 F,G, | A,2 A,2 B,3 A, | A,4 G,2 G,2 | F,2 F,2 C,3 F,, | F,,6 x2 |] %20

